X: 236
T: A Jig For Jane
R: jig
M: 6/8
K: Gmajor
|:G2 D GAB|dBA GED|EDE GAB|AGA BGz|
[1 G2 D GAB|dBA GED|EDE GAB|AGF G3:|
[2 DGG GAB|dBA GED|EDE GAB|AGF G3||
B2 e edB|d2 d dBA|GAB AGG|AGA BAB|
B2 e edB|d2 d def|gfe dBG|AGA BAB|
B2 e edB|d2 d dBA|GAB AGG|AGA BGz|
DGG GAB|dBA GED|EDE GAB|AGF G3||

